X:1
T:Rex Virtutum
T:Palestrina edit BMarble SAB
T:Rex Virtutum
T:Copyright © 2015 by The Choral Public Domain Library. Edition may be freely distributed, duplicated, performed or recorded.
T:Copyright © 2015 by The Choral Public Domain Library. Edition may be freely distributed, duplicated, performed or recorded.
T:Copyright © 2015 by The Choral Public Domain Library. Edition may be freely distributed, duplicated, performed or recorded.
C:Palestrina
C:edit BMarble
C:SAB
Z:Copyright © 2015 by The Choral Public Domain Library. Edition may be freely distributed, duplicated, performed or recorded.
%%score [ 1 2 3 ]
L:1/8
Q:1/4=64
M:2/1
K:Eb
V:1 treble nm="Soprano" snm="S."
V:2 treble nm="Soprano" snm="S."
V:3 bass nm="Baritone" snm="Bar."
V:1
"^From the hymn Jesu Dulcis Memoria:King of Might, King of Glory,King of eminent victory!Jesus, Granter of pardon,Honor of the heavenly kingdom!" z16 | %1
w: |
 E16 | G16 | B16 | F8 B8 | A4 G4 F4 G4 | A4 B4 c8- | c4 B4 B8- | B8 =A8 | B8 B4 G4 | B8 E4 E4 | %11
w: Rex|vir-|tu-|tum, Rex|glo- * * *|||* ri-|ae, Rex in-|si- gnis vic-|
 F6 F2 G8 | B4 c4 B8 | A4 G4 F6 F2 | E16!fine! |] z8 B8- | B8 _d8 | c16 | e8 _d8 | c12 c4 | %20
w: to- ri ae,|Rex in- si-|gnis vic- to- ri|ae!|Je-|* su|lar-|gi- tor|ve- ni-|
 B8 z4 B4 | c4 c4 (_d2 c2 B2 A2 | G4) E4 A8- | (A4 G4 F4) F4 | E16!D.C.! |] %25
w: ae, ho-|nor coe- le- * * *|* tis pa-|* * * tri-|ae!|
V:2
 B,16 | C16 | E16 | B,8 E8 | _D12 C2 B,2 | C8 _D8 | E8 A,8 | _D16 | C16 | B,8 =D4 E4 | %10
w: Rex|vir-|tu-|tum, Rex|glo- * *||||ri-|ae, Rex in-|
 F4 B,4 C4 E4- | E4 =D4 E8 | G4 A4 G8 | F4 E4 D6 D2 | E16 |] z8 G8- | G8 B8 | A16 | G8 B8 | %19
w: si- gnis vic- to-|* ri- ae,|Rex in- si-|gnis vic- to- ri|ae!|Je-|* su|lar-|gi- tor|
 (=A4 B8) A4 | B4 F4 G4 G4 | A2 G2 F2 E2 _D2 E2 F2 D2 | E4 A,2 B,2 C2 _D2 E2 C2 | =D4 E8 D4 | %24
w: ve- * ni-|ae, ho- nor coe-|le- * * * * * * *|* stis _ _ _ _ _|_ pa- tri-|
 E16 |] %25
w: ae!|
V:3
 z16 | z16 | E,16 | G,16 | B,16 | F,8 B,8 | A,4 G,4 F,4 E,4 | _D,12 B,,4 | F,16 | z8 B,4 C4 | %10
w: ||Rex|vir-|tu-|tum, Rex|glo- * * *|* ri-|ae,|Rex in-|
 B,8 A,6 G,2 | F,4 F,4 E,8 | E,4 C,4 E,8 | A,,4 A,,4 B,,6 B,,2 | E,16 |] z8 E,8- | E,8 B,,8 | %17
w: si- gnis vic-|to- ri- ae,|Rex in- si-|gnis vic- to- ri|ae!|Je-|* su|
 F,16 | E,8 B,,8 | F,12 F,4 | B,,8 E,8 | A,8 B,8 | C8 A,8 | B,12 B,4 | E,16 |] %25
w: lar-|gi- tor|ve- ni-|ae, ho-|nor coe-|le- stis|pa- tri-|ae!|

